package/converter/svg/solid/up-to-line.svg

<svg xmlns="http://www.w3.org/2000/svg" viewBox="0 0 384 512"><!-- Font Awesome Pro 6.0.0-alpha2 by @fontawesome - https://fontawesome.com License - https://fontawesome.com/license (Commercial License) --><path d="M56 319.887H128V447.977C128 465.664 142.328 480 160 480H224C241.674 480 256 465.664 256 447.977V319.887H328C337.578 319.887 346.25 314.178 350.047 305.375C353.828 296.572 352.031 286.346 345.453 279.373L209.453 135.27C200.391 125.668 183.609 125.668 174.547 135.27L38.547 279.373C31.969 286.346 30.172 296.572 33.953 305.375C37.75 314.178 46.422 319.887 56 319.887ZM352 32H32C14.327 32 0 46.327 0 64V64C0 81.673 14.327 96 32 96H352C369.673 96 384 81.673 384 64V64C384 46.327 369.673 32 352 32Z"/></svg>

<svg xmlns="http://www.w3.org/2000/svg" viewBox="0 0 384 512"><!--! Font Awesome Pro 6.6.0 by @fontawesome - https://fontawesome.com License - https://fontawesome.com/license (Commercial License) Copyright 2024 Fonticons, Inc. --><path d="M342.1 262.1L219.3 139.3c-7.2-7.2-17.1-11.3-27.3-11.3s-20.1 4.1-27.3 11.3L41.9 262.1c-6.4 6.4-9.9 15-9.9 24C32 304.8 47.2 320 65.9 320l62.1 0 0 128c0 17.7 14.3 32 32 32l64 0c17.7 0 32-14.3 32-32l0-128 62.1 0c18.7 0 33.9-15.2 33.9-33.9c0-9-3.6-17.6-9.9-24zM32 96l320 0c17.7 0 32-14.3 32-32s-14.3-32-32-32L32 32C14.3 32 0 46.3 0 64S14.3 96 32 96z"/></svg>
